icons/3_Generic/Security.svg

<svg width="1024" height="1024" fill="none" xmlns="http://www.w3.org/2000/svg"><g clip-path="url(#a)"><path d="M512 1024c282.77 0 512-229.23 512-512S794.77 0 512 0 0 229.23 0 512s229.23 512 512 512Z" fill="#8C72BD"/><path d="M714.47 288H309.53c-19.57 0-35.43 15.86-35.43 35.43v148.74c0 223.32 189.01 297.43 226.89 310.01a34.168 34.168 0 0 0 22.02 0c37.96-12.65 226.89-86.68 226.89-310.01V323.43c0-19.57-15.86-35.43-35.43-35.43ZM513.42 753.4c-.91.35-1.92.35-2.83 0-23.94-7.95-114.24-43.02-167.04-131.61L512 503.93l168.45 117.91c-52.79 88.63-143.15 123.61-167.04 131.55l.01.01Zm206.11-281.18c0 48.09-9.69 88.58-24.93 122.47L520.7 472.96a15.176 15.176 0 0 0-17.41 0l-173.9 121.73c-15.19-33.91-24.93-74.36-24.93-122.47V323.43c0-2.8 2.27-5.06 5.06-5.06h404.94c2.8 0 5.06 2.27 5.06 5.06v148.79h.01Z" fill="#fff"/></g><defs><clipPath id="a"><path fill="#fff" d="M0 0h1024v1024H0z"/></clipPath></defs></svg>

<svg width="1024" height="1024" viewBox="0 0 1024 1024" fill="none" xmlns="http://www.w3.org/2000/svg">
<g clip-path="url(#clip0_3_437)">
<path d="M512 1024C794.77 1024 1024 794.77 1024 512C1024 229.23 794.77 0 512 0C229.23 0 0 229.23 0 512C0 794.77 229.23 1024 512 1024Z" fill="#8C72BD"/>
<path d="M714.47 288H309.53C289.96 288 274.1 303.86 274.1 323.43V472.17C274.1 695.49 463.11 769.6 500.99 782.18C508.128 784.61 515.871 784.61 523.01 782.18C560.97 769.53 749.9 695.5 749.9 472.17V323.43C749.9 303.86 734.04 288 714.47 288ZM513.42 753.4C512.51 753.75 511.5 753.75 510.59 753.4C486.65 745.45 396.35 710.38 343.55 621.79L512 503.93L680.45 621.84C627.66 710.47 537.3 745.45 513.41 753.39L513.42 753.4ZM719.53 472.22C719.53 520.31 709.84 560.8 694.6 594.69L520.7 472.96C518.148 471.173 515.109 470.215 511.995 470.215C508.88 470.215 505.841 471.173 503.29 472.96L329.39 594.69C314.2 560.78 304.46 520.33 304.46 472.22V323.43C304.46 320.63 306.73 318.37 309.52 318.37H714.46C717.26 318.37 719.52 320.64 719.52 323.43V472.22H719.53Z" fill="white"/>
</g>
<defs>
<clipPath id="clip0_3_437">
<rect width="1024" height="1024" fill="white"/>
</clipPath>
</defs>
</svg>
